dist/img/svg/i-socials-vk.svg

<svg width="24" height="16" viewBox="0 0 24 16" fill="none" xmlns="http://www.w3.org/2000/svg">
    <path fill-rule="evenodd" clip-rule="evenodd" d="M20.5681 3.38881C20.693 2.97241 20.5681 2.6665 19.9739 2.6665H18.009C17.5094 2.6665 17.2791 2.93081 17.1542 3.22218C17.1542 3.22218 16.1549 5.65777 14.7394 7.23986C14.2815 7.6978 14.0732 7.84354 13.8235 7.84354C13.6985 7.84354 13.5112 7.6978 13.5112 7.28152V3.38875C13.5112 2.88921 13.3728 2.6665 12.9564 2.6665H9.86865C9.55646 2.6665 9.36867 2.89836 9.36867 3.11815C9.36867 3.59175 10.0764 3.701 10.1494 5.03327V7.92685C10.1494 8.56124 10.0348 8.67627 9.785 8.67627C9.1189 8.67627 7.49852 6.22979 6.53757 3.43041C6.34922 2.88629 6.1603 2.6665 5.65813 2.6665H3.69322C3.13181 2.6665 3.01953 2.93081 3.01953 3.22218C3.01953 3.7426 3.68569 6.32393 6.12123 9.73789C7.74492 12.0695 10.0326 13.3332 12.1143 13.3332C13.3633 13.3332 13.5178 13.0525 13.5178 12.569V10.8069C13.5178 10.2455 13.6361 10.1334 14.0316 10.1334C14.323 10.1334 14.8226 10.2791 15.9884 11.4032C17.3207 12.7355 17.5403 13.3332 18.2897 13.3332H20.2546C20.816 13.3332 21.0967 13.0525 20.9348 12.4985C20.7576 11.9464 20.1215 11.1454 19.2775 10.1959C18.8195 9.65463 18.1326 9.07178 17.9243 8.7803C17.633 8.40562 17.7162 8.23911 17.9243 7.90603C17.9243 7.90603 20.3183 4.53368 20.5681 3.38881Z" fill="white"/>
</svg>

<svg width="24" height="16" viewBox="0 0 24 16" fill="none" xmlns="http://www.w3.org/2000/svg"><path fill-rule="evenodd" clip-rule="evenodd" d="M20.568 3.389c.125-.417 0-.722-.594-.722h-1.965c-.5 0-.73.264-.855.555 0 0-1 2.436-2.415 4.018-.458.458-.666.604-.916.604-.125 0-.312-.146-.312-.562V3.389c0-.5-.138-.722-.555-.722H9.87c-.313 0-.5.231-.5.451 0 .474.707.583.78 1.915v2.894c0 .634-.114.75-.364.75-.666 0-2.286-2.447-3.247-5.247-.189-.544-.378-.764-.88-.764H3.693c-.561 0-.673.265-.673.556 0 .52.666 3.102 3.101 6.516 1.624 2.332 3.912 3.595 5.993 3.595 1.25 0 1.404-.28 1.404-.764v-1.762c0-.562.118-.674.514-.674.291 0 .79.146 1.956 1.27 1.333 1.332 1.552 1.93 2.302 1.93h1.965c.561 0 .842-.28.68-.835-.177-.552-.813-1.353-1.657-2.302-.458-.541-1.145-1.124-1.354-1.416-.291-.374-.208-.54 0-.874 0 0 2.394-3.372 2.644-4.517z" fill="#fff"/></svg>
